frontend/svgs/biz036.svg

<?xml version="1.0" encoding="UTF-8"?> <svg width="100px" height="100px" viewBox="0 0 100 100" version="1.1" xmlns="http://www.w3.org/2000/svg" xmlns:xlink="http://www.w3.org/1999/xlink"> <g id="36.-Office-chair" stroke="none" stroke-width="1" fill="none" fill-rule="evenodd" stroke-linecap="round" stroke-linejoin="round"> <path d="M6,50.5392408 C6,46.9277178 8.93785553,44 12.5454545,44 L12.5454545,44 C16.1604093,44 19.0909091,46.927177 19.0909091,50.5392408 L19.0909091,70.1818182 L12.5454545,70.1818182 C8.93049982,70.1818182 6,67.2546412 6,63.6425774 L6,50.5392408 Z" id="Layer-2" stroke="#576574" stroke-width="4" fill="#576574"></path> <path d="M80,50.5392408 C80,46.9277178 82.9378555,44 86.5454545,44 L86.5454545,44 C90.1604093,44 93.0909091,46.927177 93.0909091,50.5392408 L93.0909091,63.6425774 C93.0909091,67.2541004 90.1530536,70.1818182 86.5454545,70.1818182 L80,70.1818182 L80,50.5392408 Z" id="Layer-3" stroke="#576574" stroke-width="4" fill="#576574"></path> <path d="M49.8727273,70 L49.8727273,86.9821102" id="Layer-4" stroke="#576574" stroke-width="4"></path> <path d="M26,88.2955626 C27.5838543,87.4956319 29.7819993,87 32.2100608,87 L67.1036676,87 C69.4491391,87 71.5786991,87.4616784 73.1478768,88.213135" id="Layer-5" stroke="#576574" stroke-width="4"></path> <circle id="Layer-6" stroke="#576574" stroke-width="4" fill="#576574" cx="23.4545455" cy="93" r="5"></circle> <circle id="Layer-7" stroke="#576574" stroke-width="4" fill="#576574" cx="75.8181818" cy="93" r="5"></circle> <circle id="Layer-8" stroke="#576574" stroke-width="4" fill="#576574" cx="50" cy="93" r="5"></circle> <path d="M19,22.008929 C19,10.9583026 27.9485679,2 39.0034485,2 L60.0874606,2 C71.1350601,2 80.0909091,10.9488691 80.0909091,22.008929 L80.0909091,61.3454545 L19,61.3454545 L19,22.008929 Z" id="Layer-9" stroke="#798592" stroke-width="4" fill="#798592"></path> <rect id="Layer-1" stroke="#485563" stroke-width="4" fill="#485563" x="19" y="61" width="61.0909091" height="8.72727273"></rect> </g> </svg>

<svg width="100" height="100" xmlns="http://www.w3.org/2000/svg"><g fill="none" fill-rule="evenodd" stroke-linecap="round" stroke-linejoin="round" stroke-width="4"><path d="M6 50.54C6 46.927 8.938 44 12.545 44h0a6.542 6.542 0 016.546 6.54v19.642h-6.546A6.542 6.542 0 016 63.642V50.54zM80 50.54c0-3.612 2.938-6.54 6.545-6.54h0a6.542 6.542 0 016.546 6.54v13.103c0 3.611-2.938 6.539-6.546 6.539H80V50.539z" stroke="#576574" fill="#576574"/><path d="M49.873 70v16.982M26 88.296c1.584-.8 3.782-1.296 6.21-1.296h34.894c2.345 0 4.475.462 6.044 1.213" stroke="#576574"/><circle stroke="#576574" fill="#576574" cx="23.455" cy="93" r="5"/><circle stroke="#576574" fill="#576574" cx="75.818" cy="93" r="5"/><circle stroke="#576574" fill="#576574" cx="50" cy="93" r="5"/><path d="M19 22.009C19 10.959 27.949 2 39.003 2h21.084c11.048 0 20.004 8.949 20.004 20.009v39.336H19V22.01z" stroke="#798592" fill="#798592"/><path stroke="#485563" fill="#485563" d="M19 61h61.091v8.727H19z"/></g></svg>
